packages/core/src/Assets/SvgComponents/header/our-leadership.svg

<svg width="24" height="24" viewBox="0 0 24 24" fill="none" xmlns="http://www.w3.org/2000/svg">
<path d="M12 3C13.2426 3 14.25 4.17525 14.25 5.625C14.25 6.45913 13.9165 7.20239 13.3966 7.68321C14.3704 8.03188 15.1336 8.8535 15.4342 9.87926C15.7137 9.31584 16.152 8.8588 16.683 8.57372C16.118 8.16619 15.75 7.50107 15.75 6.75C15.75 5.50736 16.7574 4.5 18 4.5C19.2426 4.5 20.25 5.50736 20.25 6.75C20.25 7.51483 19.8684 8.19052 19.2852 8.59707C20.1608 9.08311 20.7751 10.0415 20.8302 11.1653L20.9972 13.8807C21.0156 14.1116 20.9418 14.3401 20.7941 14.5092C20.6465 14.6784 20.439 14.7722 20.2304 14.7675L19.6361 14.7668L19.2161 19.6425C19.1864 19.9598 18.9553 20.2073 18.6688 20.245L18.5894 20.25H17.3684C17.0389 20.251 16.7646 19.9785 16.74 19.6263L16.4024 14.9325H15.7685C15.59 14.9326 15.4181 14.866 15.2814 14.7458L15.3078 14.7669C15.2407 14.7914 15.1689 14.8051 15.0945 14.8068L14.2538 14.8067C14.2106 14.8065 14.1741 14.8403 14.1696 14.8821L13.7053 19.4994C13.6719 19.9246 13.3313 20.2514 12.9245 20.25H11.7275C11.3148 20.2509 10.9725 19.9165 10.946 19.4937L10.5799 15.0775C10.5755 15.0288 10.5366 14.9914 10.4938 14.9909H9.78943C9.57567 14.991 9.37101 14.9005 9.22227 14.7399C9.07353 14.5794 8.99345 14.3627 9.00042 14.1372L9.11994 10.8735C9.11994 9.57386 9.82289 8.44588 10.853 7.88245C10.1927 7.4265 9.75 6.58606 9.75 5.625C9.75 4.17525 10.7574 3 12 3ZM6 4.5C7.24264 4.5 8.25 5.50736 8.25 6.75C8.25 7.509 7.87419 8.18022 7.29849 8.58773C8.2255 9.09112 8.85882 10.1077 8.85844 11.2704L8.99903 13.9719C9.00962 14.1952 8.93291 14.4134 8.78683 14.5753C8.64075 14.7372 8.43811 14.8288 8.22673 14.8285L7.64296 14.8277L7.22041 19.6493C7.19054 19.9631 6.95803 20.2078 6.66981 20.2451L6.58993 20.25H5.3756C5.04414 20.251 4.76823 19.9815 4.74342 19.6333L4.40378 14.9917L3.76026 14.9916C3.58263 14.9886 3.41236 14.9211 3.27736 14.802L3.21293 14.7383C3.07004 14.5798 2.99347 14.3673 3.00044 14.1476L3.09856 11.2908C3.09856 10.1035 3.74313 9.07506 4.683 8.57436C4.11801 8.16619 3.75 7.50107 3.75 6.75C3.75 5.50736 4.75736 4.5 6 4.5ZM12.3467 8.23657C10.9537 8.23657 9.82448 9.41715 9.82422 10.8875L9.70448 14.1631C9.70378 14.187 9.71236 14.2102 9.7283 14.2274C9.74424 14.2446 9.76616 14.2543 9.78925 14.2543L10.4978 14.2544C10.9046 14.2592 11.2426 14.584 11.2816 15.0107L11.6485 19.4377C11.6512 19.4804 11.6851 19.5134 11.7267 19.5134H12.9256C12.9661 19.5136 12.9998 19.4812 13.0039 19.4307L13.4692 14.802C13.5147 14.3831 13.855 14.0675 14.256 14.0702L15 14.07L15.0165 13.596L14.869 10.8735C14.869 9.51273 13.8831 8.39272 12.6173 8.25157L12.4807 8.24022L12.3467 8.23657ZM5.86325 8.99591L5.85081 8.99556C4.70764 9.06551 3.80104 10.0668 3.80082 11.3042L3.70246 14.1734C3.70187 14.1933 3.70883 14.2126 3.72182 14.227C3.73481 14.2414 3.75274 14.2497 3.76592 14.25L4.46742 14.25C4.79889 14.249 5.0748 14.5185 5.09961 14.8667L5.43855 19.5083H6.52741L6.94987 14.696C6.9788 14.3838 7.20643 14.1378 7.49911 14.0937L7.58044 14.0868L8.22717 14.0868C8.24643 14.0869 8.26485 14.0785 8.27813 14.0638C8.29141 14.0491 8.29838 14.0293 8.29751 14.0108L8.15648 11.2908C8.15648 10.0688 7.25348 9.06946 6.11352 8.99599L6 9C5.95408 9 5.90848 8.99862 5.86325 8.99591ZM17.9644 9C16.8095 9 15.8565 9.97098 15.796 11.2036L15.7178 13.5142L15.7493 14.0828C15.7507 14.1149 15.75 14.1468 15.7472 14.1785C15.7535 14.1813 15.7608 14.1825 15.7683 14.1825L16.4656 14.1825C16.7951 14.1815 17.0694 14.454 17.094 14.8062L17.4309 19.5H18.5273L18.9472 14.6335C18.976 14.3178 19.2022 14.0691 19.4931 14.0245L19.574 14.0175L20.2376 14.0176C20.2554 14.018 20.2725 14.0102 20.2847 13.9963C20.2969 13.9823 20.303 13.9635 20.301 13.9373L20.1331 11.2098C20.0723 9.97098 19.1194 9 17.9644 9ZM12.375 8.25C12.5821 8.25 12.75 8.41789 12.75 8.625V10.875C12.75 11.0821 12.5821 11.25 12.375 11.25C12.1679 11.25 12 11.0821 12 10.875V8.625C12 8.41789 12.1679 8.25 12.375 8.25ZM6 5.24751C5.1702 5.24751 4.49751 5.9202 4.49751 6.75C4.49751 7.5798 5.1702 8.25249 6 8.25249L5.95725 8.25075L5.97877 8.25C5.99483 8.25 6.01087 8.25014 6.02687 8.25042C6.84409 8.23811 7.50249 7.57094 7.50249 6.75C7.50249 5.9202 6.8298 5.24751 6 5.24751ZM18 5.24751C17.1702 5.24751 16.4975 5.9202 16.4975 6.75C16.4975 7.5798 17.1702 8.25249 18 8.25249L17.952 8.25H17.9644C17.9833 8.25 18.0021 8.2502 18.0208 8.25058C18.8408 8.2414 19.5025 7.57297 19.5025 6.75C19.5025 5.9202 18.8298 5.24751 18 5.24751ZM12 3.78358C11.1283 3.78358 10.4216 4.60801 10.4216 5.625C10.4216 6.64199 11.1283 7.46642 12 7.46642C12.8717 7.46642 13.5784 6.64199 13.5784 5.625C13.5784 4.60801 12.8717 3.78358 12 3.78358Z" fill="url(#paint0_linear)"/>
<defs>
<linearGradient id="paint0_linear" x1="3" y1="19.5462" x2="20.2969" y2="2.97007" gradientUnits="userSpaceOnUse">
<stop stop-color="#FF444F"/>
<stop offset="1" stop-color="#FF6444"/>
</linearGradient>
</defs>
</svg>

<svg width="24" height="24" fill="none" xmlns="http://www.w3.org/2000/svg"><path d="M12 3c1.243 0 2.25 1.175 2.25 2.625 0 .834-.334 1.577-.853 2.058.973.349 1.737 1.17 2.037 2.196.28-.563.718-1.02 1.249-1.305a2.25 2.25 0 112.602.023c.876.486 1.49 1.444 1.545 2.568l.167 2.716a.854.854 0 01-.203.628.733.733 0 01-.564.258h-.594l-.42 4.875c-.03.318-.26.565-.547.603l-.08.005h-1.22c-.33.001-.604-.271-.629-.624l-.338-4.694h-.634a.736.736 0 01-.487-.186l.027.02a.665.665 0 01-.213.04h-.841a.085.085 0 00-.084.076l-.465 4.617c-.033.426-.374.752-.78.751h-1.198a.795.795 0 01-.781-.756l-.366-4.416c-.005-.05-.043-.087-.086-.087h-.705a.772.772 0 01-.567-.251.847.847 0 01-.222-.603l.12-3.264c0-1.3.703-2.427 1.733-2.99-.66-.457-1.103-1.297-1.103-2.258C9.75 4.175 10.757 3 12 3zM6 4.5a2.25 2.25 0 011.298 4.088c.928.503 1.56 1.52 1.56 2.682L9 13.972a.842.842 0 01-.212.603.754.754 0 01-.56.254l-.584-.001-.423 4.821a.652.652 0 01-.55.596l-.08.005H5.376c-.332.001-.608-.268-.633-.617l-.34-4.641H3.76a.749.749 0 01-.483-.19l-.064-.064a.842.842 0 01-.213-.59L3.1 11.29c0-1.188.644-2.216 1.584-2.717A2.25 2.25 0 016 4.5zm6.347 3.737c-1.393 0-2.523 1.18-2.523 2.65l-.12 3.276a.09.09 0 00.024.064.083.083 0 00.061.027h.709c.407.005.745.33.784.757l.367 4.427a.08.08 0 00.078.075h1.199c.04 0 .074-.032.078-.082l.465-4.629c.046-.419.386-.734.787-.732H15l.017-.474-.148-2.723c0-1.36-.986-2.48-2.252-2.621l-.136-.012-.134-.003zm-6.484.759h-.012c-1.143.07-2.05 1.07-2.05 2.308l-.099 2.87c0 .02.007.039.02.053.013.014.03.023.044.023h.701c.332-.001.608.268.633.617l.339 4.641h1.088l.423-4.812a.66.66 0 01.55-.602l.08-.007h.647c.02 0 .038-.008.051-.023a.075.075 0 00.02-.053l-.142-2.72c0-1.222-.903-2.222-2.042-2.295L6 9c-.046 0-.092-.001-.137-.004zM17.964 9c-1.154 0-2.107.971-2.168 2.204l-.078 2.31.031.569a.727.727 0 01-.002.095.052.052 0 00.021.004h.698c.33 0 .603.272.628.624l.337 4.694h1.096l.42-4.867a.663.663 0 01.546-.608l.081-.008h.664a.06.06 0 00.047-.02c.012-.015.018-.034.016-.06l-.168-2.727C20.073 9.97 19.12 9 17.964 9zm-5.589-.75c.207 0 .375.168.375.375v2.25a.375.375 0 01-.75 0v-2.25c0-.207.168-.375.375-.375zM6 5.248a1.502 1.502 0 000 3.004l-.043-.001.022-.001h.048A1.502 1.502 0 006 5.247zm12 0a1.503 1.503 0 000 3.004l-.048-.002h.069A1.503 1.503 0 0018 5.248zm-6-1.464c-.872 0-1.578.824-1.578 1.841S11.128 7.466 12 7.466c.872 0 1.578-.824 1.578-1.841S12.872 3.784 12 3.784z" fill="url(#paint0_linear)"/><defs><linearGradient id="paint0_linear" x1="3" y1="19.546" x2="20.297" y2="2.97" gradientUnits="userSpaceOnUse"><stop stop-color="#FF444F"/><stop offset="1" stop-color="#FF6444"/></linearGradient></defs></svg>
